build/images/close-drop-up.svg

<svg width="43" height="44" viewBox="0 0 43 44" fill="none" xmlns="http://www.w3.org/2000/svg">
<path fill-rule="evenodd" clip-rule="evenodd" d="M21.6551 20.5858L11.5347 10.4653L10.1205 11.8795L20.2409 22L10.1205 32.1205L11.5347 33.5347L21.6551 23.4142L31.3337 33.0927L32.7479 31.6785L23.0694 22L32.7479 12.3215L31.3337 10.9073L21.6551 20.5858Z" fill="#D8D8D8"/>
</svg>

<svg width="43" height="44" viewBox="0 0 43 44" fill="none" xmlns="http://www.w3.org/2000/svg"><path fill-rule="evenodd" clip-rule="evenodd" d="M21.655 20.586l-10.12-10.12-1.415 1.414L20.24 22 10.12 32.12l1.415 1.415 10.12-10.12 9.679 9.678 1.414-1.415L23.069 22l9.679-9.678-1.414-1.415-9.679 9.679z" fill="#D8D8D8"/></svg>
